svg/300/sharp/swipe_right-fill.svg

<svg xmlns="http://www.w3.org/2000/svg" width="48" height="48" viewBox="0 -960 960 960"><path d="M100.001-686.922q50.154-96.538 148.654-149.999t222.884-53.461q96.461 0 184.653 32.961t170.73 96.961v-99.539h33.077v173.077H686.922v-33.077h136.077q-80.923-68.615-168.884-102.961-87.961-34.346-182.576-34.346-108.461 0-195.654 43.884-87.192 43.885-138.576 126.5h-37.308Zm328.23 586.921L194.77-333.078l32.461-44.691 142.77 37v-361.923h45.383v315.385h76.232v-180h45.383v180H613v-140h45.384v140h76.231v-60h45.384v347.306H428.231Z"/></svg>

<svg xmlns="http://www.w3.org/2000/svg" width="48" height="48" viewBox="0 -960 960 960"><path d="M100-686.92q50.16-96.54 148.66-150 98.49-53.46 222.88-53.46 96.46 0 184.65 32.96 88.19 32.96 170.73 96.96V-860H860v173.08H686.92V-720H823q-80.92-68.61-168.89-102.96-87.96-34.35-182.57-34.35-108.46 0-195.65 43.89-87.2 43.88-138.58 126.5H100ZM428.23-100 194.77-333.08l32.46-44.69 142.77 37v-361.92h45.38v315.38h76.24v-180H537v180h76v-140h45.38v140h76.23v-60H780V-100H428.23Z"/></svg>
